X: 3219
M: 6/8
L: 1/8
K: A
|:\
vA2vc ecA | B2A GFE |\
cAc efg | agf efd |\
cAc efg | agf e3 |\
cAc efg | agf edc |\
ded cBA | BcA GFE |]


